deepin/places/user-trash-symbolic.svg

<?xml version="1.0" encoding="iso-8859-1"?>
<!-- Generator: Adobe Illustrator 18.0.0, SVG Export Plug-In . SVG Version: 6.00 Build 0)  -->
<!DOCTYPE svg PUBLIC "-//W3C//DTD SVG 1.1//EN" "http://www.w3.org/Graphics/SVG/1.1/DTD/svg11.dtd">
<svg version="1.1" id="&#x56FE;&#x5C42;_1" xmlns="http://www.w3.org/2000/svg" xmlns:xlink="http://www.w3.org/1999/xlink" x="0px"
	 y="0px" viewBox="0 0 16 16" style="enable-background:new 0 0 16 16;" xml:space="preserve">
<g>
	<path style="fill:#9FA0A0;" d="M13.505,2h-3c-0.275,0-0.5-0.225-0.5-0.5c0-0.275-0.225-0.5-0.5-0.5h-3c-0.275,0-0.5,0.225-0.5,0.5
		c0,0.275-0.225,0.5-0.5,0.5h-3c-0.275,0-0.5,0.225-0.5,0.5c0,0.275,0.225,0.5,0.5,0.5h11c0.275,0,0.5-0.225,0.5-0.5
		C14.005,2.225,13.78,2,13.505,2z"/>
	<path style="fill:#9FA0A0;" d="M3.005,15h10V4h-10V15z M10.005,5.99c0-0.547,0.443-0.99,0.99-0.99h0.02
		c0.547,0,0.99,0.443,0.99,0.99v7.02c0,0.547-0.443,0.99-0.99,0.99h-0.02c-0.547,0-0.99-0.443-0.99-0.99V5.99z M7.005,5.99
		C7.005,5.443,7.449,5,7.995,5h0.02c0.547,0,0.99,0.443,0.99,0.99v7.02c0,0.547-0.443,0.99-0.99,0.99h-0.02
		c-0.547,0-0.99-0.443-0.99-0.99V5.99z M4.005,5.99C4.005,5.443,4.449,5,4.995,5h0.02c0.547,0,0.99,0.443,0.99,0.99v7.02
		c0,0.547-0.443,0.99-0.99,0.99h-0.02c-0.547,0-0.99-0.443-0.99-0.99V5.99z"/>
</g>
</svg>

<?xml version="1.0" encoding="UTF-8" standalone="no"?>
<!-- Created with Inkscape (http://www.inkscape.org/) -->

<svg
   xmlns:dc="http://purl.org/dc/elements/1.1/"
   xmlns:cc="http://creativecommons.org/ns#"
   xmlns:rdf="http://www.w3.org/1999/02/22-rdf-syntax-ns#"
   xmlns:svg="http://www.w3.org/2000/svg"
   xmlns="http://www.w3.org/2000/svg"
   xmlns:inkscape="http://www.inkscape.org/namespaces/inkscape"
   version="1.1"
   width="100%"
   height="100%"
   viewBox="0 0 16 16"
   id="图层_1"
   xml:space="preserve"><metadata
     id="metadata13"><rdf:RDF><cc:Work
         rdf:about=""><dc:format>image/svg+xml</dc:format><dc:type
           rdf:resource="http://purl.org/dc/dcmitype/StillImage" /></cc:Work></rdf:RDF></metadata><defs
     id="defs11" /><g
     id="g3"><path
       d="m 13.505,2 h -3 C 10.23,2 10.005,1.775 10.005,1.5 10.005,1.225 9.78,1 9.505,1 h -3 C 6.23,1 6.005,1.225 6.005,1.5 6.005,1.775 5.78,2 5.505,2 h -3 c -0.275,0 -0.5,0.225 -0.5,0.5 0,0.275 0.225,0.5 0.5,0.5 h 11 c 0.275,0 0.5,-0.225 0.5,-0.5 0,-0.275 -0.225,-0.5 -0.5,-0.5 z"
       inkscape:connector-curvature="0"
       id="path5"
       style="fill:#9fa0a0" /><path
       d="m 3.005,15 h 10 V 4 h -10 v 11 z m 7,-9.01 C 10.005,5.443 10.448,5 10.995,5 h 0.02 c 0.547,0 0.99,0.443 0.99,0.99 v 7.02 c 0,0.547 -0.443,0.99 -0.99,0.99 h -0.02 c -0.547,0 -0.99,-0.443 -0.99,-0.99 V 5.99 z m -3,0 C 7.005,5.443 7.449,5 7.995,5 h 0.02 c 0.547,0 0.99,0.443 0.99,0.99 v 7.02 C 9.005,13.557 8.562,14 8.015,14 H 7.995 C 7.448,14 7.005,13.557 7.005,13.01 V 5.99 z m -3,0 C 4.005,5.443 4.449,5 4.995,5 h 0.02 c 0.547,0 0.99,0.443 0.99,0.99 v 7.02 C 6.005,13.557 5.562,14 5.015,14 H 4.995 C 4.448,14 4.005,13.557 4.005,13.01 V 5.99 z"
       inkscape:connector-curvature="0"
       id="path7"
       style="fill:#9fa0a0" /></g></svg>
